X:1
T:Grace When the Sun Is Shining
T:Grace When the Sun Is Shining
T:Louise Shepard Pridgeon (1865-1928)
T:Anonymous, before 1907
T:Public Domain Courtesy of the Cyber Hymnal™
T:Public Domain Courtesy of the Cyber Hymnal™
C:Louise Shepard Pridgeon (1865-1928)
Z:Public Domain
Z:Courtesy of the Cyber Hymnal™
%%score ( 1 2 ) 3
L:1/8
Q:1/4=110
M:4/4
K:F
V:1 treble 
V:2 treble 
V:3 bass 
V:1
 F2 F[FA] [Fc]2 [Fc]2 | [Fd]2 [Fd]2 [Fc]2 F[FG] | [FA]4 [DF]4 | [EG]6 z2 | F2 F[FA] [Fc]2 [Fc]2 | %5
w: 1.~Grace, when the sun is|shin- ing, Lord, When the|sky is|black;|Grace, when I hear the|
w: 2.~Grace, when my du- ties|all go wrong, When they|seem all|right;|Grace when ’tis glad- ness,|
w: 3.~Grace, when the saved ones|don’t “act saved,” And lay|blame on|me;|Grace, when the grace I’ve|
 [Fd]2 [Fd]2 [Fc]2 F[FG] | [FA]4 [EG]4 | [CF]6 z2 | [Fd]2 [Fd][Fd] [Ff]2 [Fd]2 | %9
w: un- kind word, Or am|off the|track;|Grace, when I’m el- bowed|
w: praise, and song, When I|have to|fight;|Grace, when my clothes are|
w: asked and craved Seems de-|nied by|Thee.|Grace, when the mid- night|
 [Fc]2 [FA]2 F2 F[FG] | [FA]4 [DF]4 | [EG]6 z2 | F2 F[FA] [Fc]2 [Fc]2 | [Fd]2 [Ff]2 [Fc]2 F[FG] | %14
w: in a nook Till I|can- not|turn;|Grace, when the din- ner|will not cook, When the|
w: fresh and new, When they’re|worn and|old;|Grace, when my purse is|emp- ty, too, When it’s|
w: hours I tell, When the|morn is|nigh;|Grace, when I’m health- y,|strong and well, When I|
 [FA]4 [EG]4 | [CF]6 z2 ||[Q:1/4=103]"^Refrain" [CF]2"^Slower" C2 [CF][FA] [Fc]2 | %17
w: fire won’t|burn.||
w: full of|gold.|Grace, grace, all the way,|
w: come to|die.||
 [DG]2 D2 [CF][CE] (DC) | [CF]2 C2 [CF][FA] [Fd]2 | [Fc]2 [CE]2 [CF]4 |] %20
w: |||
w: Grace, grace, ev- ery day; *|Grace, more grace from Thee,|Lord, for me.|
w: |||
V:2
 F2 F x5 | x6 F x | x8 | x8 | F2 F x5 | x6 F x | x8 | x8 | x8 | x4 F2 F x | x8 | x8 | F2 F x5 | %13
 x6 F x | x8 | x8 || x2 C2 x4 | x2 D2 C2 x2 | x2 C2 x4 | x8 |] %20
V:3
 [F,A,]2 [F,A,][F,C] [F,A,]2 [F,A,]2 | [F,B,]2 [F,B,]2 [F,A,]2 [F,A,][F,B,] | [D,D]4 [D,A,]4 | %3
 [C,B,]6 z2 | [F,A,]2 [F,A,][F,C] [F,A,]2 [F,A,]2 | [F,B,]2 [F,B,]2 [F,A,]2 [F,A,][F,B,] | %6
 [C,C]4 [C,B,]4 | [F,A,]6 z2 | [F,B,]2 [F,B,][F,B,] [F,D]2 [F,B,]2 | %9
 [F,A,]2 [F,C]2 [F,A,]2 [F,A,][F,B,] | [D,D]4 [D,A,]4 | [C,B,]6 z2 | %12
 [F,A,]2 [F,A,][F,C] [F,A,]2 [F,A,]2 | [F,B,]2 [F,D]2 [F,A,]2 [F,A,][F,B,] | [C,C]4 [C,B,]4 | %15
 [F,A,]6 z2 || [F,A,]2 [G,B,]2 [F,A,][F,C] [F,A,]2 | [B,,B,]2 [B,,G,]2 [C,A,][C,B,] [C,B,]2 | %18
 [F,A,]2 [G,B,]2 [F,A,][F,C] [B,,B,]2 | [C,A,]2 [C,B,]2 [F,A,]4 |] %20

